X: 0221
M: 3/4
L: 1/16
K: G
V: 1 nm="FLUTE or CLARINET"
z12 | z4 !p!z2dd d2d2 |\
b4 (ag).f.e d2{f}e2 | "^>".d2.B2 z2((3ded) .B2.d2 | "^>".c2.A2 z2((3cdc) .A2.c2 |\
.B2.c2 d2dd d2d2 |
b4 (ag).f.e d2{f}e2 | "^>".d2.B2 z2((3ded) .B2.d2 | "^>".c2.A2 z2((3cdc) .A2.f2 |\
g6 !ff!dd d2d2 | g4 (fe).d.c .B2{d}.c2 |\
"_>".B2.G2 z2((3BcB) .G2.B2 | "_>".A2.F2 z2((3ABA) .F2.A2 |
.G2.A2 B2BB B2B2 | G4 (fe).d.c B2{d}c2 |\
"_>".B2.G2 z2((3BcB) .G2.B2 | "_>".A2.F2 z2((3ABA) .F2.[c2A2] | [B6G6] |]\
!p!.d.d .d2.d2 | .d2.d2.d2 .d.d .d2.d2 | .d2.d2.d2 .d.d .d2.d2 |
.d2.d2 .d2.d2 .d2.d2 | .d2.d2.d2 .d.d "^CRES . . .".d2.d2 |\
.d2.d2.d2 .d.d .d2.d2 |\
.d2.d2 .d2.d.d "^. . . CEN . . .".d2.d2 | .d2.d2 "^. . . DO . . .".d2.d2 .d2.d2 | .d2.d2 .d(d^cd cde)f !ff!|\
g4 (fe).d.c .B2{d}.c2 |
"_>".B2.G2 z2((3BcB) .G2.B2 |\
"_>".A2.F2 z2((3ABA) .F2.A2 | .G2.A2.B2 BB B2B2 |\
g4 (fe).d.c .B2{d}.c2 | "_>".B2.G2 z2((3BcB) .G2.B2 |\
"_>".A2.F2 z2((3ABA) .F2.[c2A2] | [B6G6] |]\
V: 2 nm="VIOLIN PRIMO"
!p!B,2D2 B,2D2 B,2D2 | B,2D2 B,2D2 B,2D2 | B,2D2 B,2D2 C2E2 | B,2D2 B,2D2 B,2D2 | z2F2 D2A2 F2A2 |
"^>".d2.B2 z2((3ded) .B2.d2 | "^>".c2.A2 z2((3cdc) .A2c2 | .B2.c2 d2dd d2d2 | b4 (ag).f.e d2{f}ed |\
"^>".d2.B2 z2((3ded) .B2.d2 | "^>".c2.A2 z2((3cdc) .A2f2 | g6 |]
z2z4 !p!| .a2.b2.c'2 z2z4 | .b2.c'2.d'2 z2z4 | .c'2.b2 .c'2.b2 .c'2.b2 | .c'2.b2.a2 z2z4 | .a2.b2.c'2 z2z4 |
.b2.c'2.d'2 z2z4 | .c'2.b2 .c'2.b2 .c'2.b2 | .c'2.b2 .a(d^cd efg)a !ff!|\
b4 (ag).f.e d2{f}e2 | "^>".d2.B2 z2((3ded) .B2.d2 |
"^>".c2.A2 z2((3cdc) .A2.c2 | .B2.c2.d2 dd d2d2 |\
b4 (ag).f.e d2{f}e2 | "^>".d2.B2 z2((3ded) .B2.d2 | "^>".c2.A2 z2((3cdc) .A2.f2 | g6 |]
V: 3 nm="VIOLIN SECONDO"
!p!G,2B,2 G,2B,2 G,2B,2 | G,2B,2 G,2B,2 G,2B,2 |\
z2z4 !p!|\
.f2.g2.a2 z2z4 | .g2.a2.b2 z2z4 | .a2.g2 .a2.g2 .a2.g2 |\
.a2.g2.f2 z2z4 | "^CRES . . .".f2.g2.a2 z2z4 |
.g2.a2.b2 "^. . . CEN . . ."z2z4 | .a2.g2 "^. . . DO.".a2.g2 .a2.g2 | .a2.g2.f2 z2z4 !ff!|\
V: 4 clef=bass middle=d nm="VIOLONCELLO"
!p!G8 z4 | !p!G8 z4 | G4 z4 G4 | G8 z4 | !p!G8 z4 |
z2z4 !p!| .d'2.d'2.d'2 z2z4 | .d'2.d'2.d'2 z2z4 | .d'2.d'2 .d'2.d'2 .d'2.d'2 | .d'2.d'2.d'2 z2z4 | .d'2.d'2.d'2 z2z4 |
.d'2.d'2.d'2 z2z4 | .d'2.d'2 .d'2.d'2 .d'2.d'2 | .d'2.d'2.d'2 z2z4 !ff!|\

